X: 67
M:2/4
L:1/16
K:D
u((3ABc)|.d2.f.d .c2.e.c|(dc).d.B A2FA|.G2EG .F2DF|EDCE D3A,|
K:A
|:(cd)|">"e(cAc) ">"e(cAc)|">"e(aga) .f.e.c.d|">"e(cAc) ">"e(cAc)|">"B(GEG) ">"B(GEG)|
">"e(cAc) ">"e(cAc)|">"e(aga) .f.e.c.d|">"e(cAc) ">"e(cAc)|.B.A.G.B "D.C."A2 :|


